frontend/public/svg/hand gestures/double-tap.svg

<svg width="113" height="167" viewBox="0 0 113 167" fill="none" xmlns="http://www.w3.org/2000/svg">
<g clip-path="url(#clip0)">
<path d="M109.376 88.4614C108.74 86.982 107.785 85.6615 106.579 84.5943C105.372 83.5277 103.944 82.7414 102.398 82.2918C100.714 81.8022 98.9436 81.686 97.2102 81.9512C95.4768 82.2163 93.8228 82.8569 92.3625 83.8277C92.014 84.0547 91.6727 84.2943 91.3169 84.5437L91.145 84.6638C90.2281 82.6646 88.8583 80.9063 87.1446 79.5273C85.4303 78.149 83.4192 77.1888 81.2697 76.7221C79.4241 76.3657 77.5194 76.4622 75.7191 77.0024C73.9187 77.5432 72.2759 78.5126 70.9324 79.8266C69.4104 77.4776 67.3587 75.0741 63.8352 74.3665C60.4879 73.6971 57.8484 75.3058 55.2919 76.8606L55.1403 76.9525C55.0528 75.6425 54.9693 74.3541 54.8901 73.0867C54.6879 69.8706 54.4963 66.8377 54.1924 63.7746C54.0803 62.6409 53.971 61.5065 53.8642 60.3715C53.3529 55.0079 52.8234 49.4612 51.8474 44.0819C51.3223 41.1776 50.0222 38.0245 47.8799 34.4422C46.6329 32.3551 45.0078 31.1061 43.0532 30.7293C41.1951 30.371 39.0914 30.8573 36.9629 32.1312C35.8609 32.784 34.9018 33.6523 34.143 34.6842C33.3842 35.716 32.8411 36.8902 32.5464 38.1368C32.089 39.7787 31.8 41.4631 31.684 43.1637C31.6232 44.4409 31.5597 45.7183 31.4936 46.996C31.2127 52.5696 30.9221 58.3336 30.9266 64.0063C30.9332 71.4419 31.0979 78.7332 31.2725 86.453C31.3399 89.4722 31.4054 92.5169 31.4692 95.5866L31.3189 95.4553C30.8713 95.0648 30.4847 94.7275 30.0621 94.4229C23.3497 89.5745 16.2134 87.8825 8.8506 89.3947C7.27594 89.6835 5.79842 90.3615 4.55235 91.3663C3.30628 92.3719 2.33109 93.6721 1.71548 95.1501C1.10004 96.6919 0.879606 98.3623 1.07389 100.011C1.26817 101.659 1.87122 103.233 2.82818 104.589C3.62025 105.678 4.52983 106.677 5.5407 107.567C6.10909 108.106 6.69657 108.663 7.22033 109.244C8.1661 110.294 9.16039 111.334 10.1226 112.342C12.6046 114.793 14.8655 117.458 16.8789 120.306C19.0041 123.669 20.9365 127.15 22.666 130.732C23.6322 132.64 24.6317 134.614 25.6779 136.519L25.8551 136.843C28.3492 141.375 30.9201 146.062 33.7443 150.495C35.14 152.568 36.8699 154.394 38.8636 155.901C42.8923 159.012 47.3768 161.483 52.159 163.226C56.9251 165.064 61.9904 166.004 67.0987 165.999C72.9841 165.944 78.8111 164.83 84.3014 162.71C88.0471 161.31 91.4856 158.871 94.9701 156.283C100.973 151.824 105.058 145.256 107.826 135.604C111.213 123.914 112.649 111.746 112.076 99.5883C111.843 95.7487 110.929 91.9807 109.376 88.4614ZM43.1417 149.549C41.965 148.759 40.9388 147.765 40.1119 146.614C38.0752 143.676 36.1888 140.638 34.4597 137.51C31.8606 132.691 29.3279 127.694 26.715 122.234C22.5761 113.588 17.389 106.924 10.8577 101.859C10.7798 101.801 10.7057 101.738 10.636 101.671C10.4332 101.464 10.2224 101.26 10.0104 101.055C8.62029 99.7064 7.30685 98.4331 8.12725 96.3375C8.91091 94.3343 10.8926 93.9897 12.8229 93.9897C12.9587 93.9897 13.0953 93.9897 13.2305 93.9943C19.6836 94.1361 24.6637 96.407 28.0334 100.743C29.0102 102.185 29.7522 103.771 30.2316 105.445C30.3396 105.758 30.449 106.068 30.5598 106.376C31.054 107.749 31.7209 109.625 34.0154 109.567C35.7921 109.518 36.9688 108.374 37.4282 106.257C37.6125 105.357 37.6932 104.437 37.6686 103.518C37.5373 96.1136 37.3679 87.3272 37.1533 78.2941C37.1145 76.6532 37.0353 74.9907 36.9565 73.3814C36.8252 70.5854 36.6865 67.6949 36.7594 64.8628C36.9707 56.4519 37.4485 48.0652 37.8403 41.6987C38.0674 38.0016 38.6937 37.0827 41.9924 35.8245C44.0389 37.2763 45.3234 39.5735 45.9167 42.8401C46.7767 47.4505 47.3775 52.1055 47.7158 56.7833C48.1917 63.774 48.5458 70.8945 48.8885 77.7756C49.0416 80.8492 49.1985 83.9228 49.3587 86.9958C49.4413 88.5539 49.8219 90.4028 52.0436 90.8754C54.1137 91.3138 55.2229 89.6008 56.0348 87.8648C56.1982 87.5156 56.3591 87.1632 56.5213 86.8107C57.344 84.8273 58.3815 82.9396 59.6152 81.182C60.6515 79.8246 61.968 79.169 63.217 79.3757C64.5225 79.5943 65.5995 80.7074 66.1705 82.4303C66.5573 83.8112 66.7693 85.2342 66.8027 86.6676C66.8316 87.1041 66.8605 87.5399 66.8979 87.9718C66.9287 88.5172 66.9137 89.0639 66.8513 89.6061C66.8224 89.9441 66.7942 90.2827 66.7857 90.6201C66.7391 92.3154 67.5267 93.3577 69.0625 93.6353C70.769 93.9425 71.9661 93.1476 72.4367 91.3972C72.5024 91.1498 72.5582 90.8977 72.6113 90.6463C72.6848 90.2512 72.7885 89.862 72.9205 89.482C73.1174 88.9681 73.2985 88.4483 73.4836 87.9278C73.9601 86.4523 74.5587 85.0189 75.2734 83.6426C76.5067 81.4314 77.9959 80.8859 80.5898 81.707C83.3739 82.5865 85.0771 84.3757 85.6527 87.0234C85.9606 88.6767 86.1299 90.3523 86.1601 92.0332L86.1726 92.301C86.2933 94.9368 86.7482 96.5429 88.71 96.9498C90.9035 97.4053 91.7993 95.9062 92.5896 94.587C92.6749 94.4439 92.7609 94.3008 92.8482 94.1597C93.0451 93.8368 93.242 93.51 93.4389 93.1818C94.0644 92.0647 94.785 91.0021 95.591 90.0071C96.9693 88.4148 98.5314 87.639 99.9885 87.8208C101.427 88 102.725 89.1072 103.643 90.9391C105.394 94.4163 106.329 98.2474 106.377 102.14C106.499 110.869 105.405 119.943 102.934 130.706C101.689 136.035 99.3945 141.062 96.1843 145.494C92.6926 150.372 87.4065 153.949 80.4736 156.127C67.4289 160.22 55.219 158.069 43.1417 149.549Z" fill="black"/>
<path d="M20.6358 58.1663C23.6116 59.0976 25.4213 58.757 26.1669 57.1161C26.9427 55.4096 25.9382 53.6959 23.1822 52.0137L22.5458 51.6291C21.0493 50.7299 19.5017 49.8006 18.4975 48.5247C15.1525 44.3381 13.2568 39.179 13.0953 33.8227C12.7185 23.4808 18.7724 14.6852 28.8957 10.8699C35.2721 8.43849 42.0778 7.33409 48.8958 7.6243C56.4765 7.961 62.0132 9.97793 66.3221 13.9717C69.1531 16.5971 77.9395 26.0969 72.1768 38.1906C70.9482 40.7938 69.3683 43.2163 67.4814 45.39C65.9497 47.035 64.2983 48.5641 62.5404 49.9647C61.7843 50.598 61.0306 51.2314 60.2936 51.8825C59.9555 52.1818 59.6085 52.4732 59.2607 52.7633C58.4678 53.3957 57.7202 54.083 57.0237 54.8202C55.8423 56.1329 55.6842 57.6353 56.5959 58.944C56.9027 59.4204 57.3221 59.8141 57.8169 60.0904C58.3117 60.3667 58.8665 60.5171 59.4331 60.5284C59.8097 60.527 60.1835 60.4629 60.539 60.3387C62.2606 59.7585 63.9037 58.9672 65.4308 57.9831C69.7845 55.0927 73.4934 51.3338 76.3262 46.9422C84.5048 34.4718 82.7983 20.3015 71.8736 9.96086C65.3927 3.82739 57.47 1.25126 44.5283 1.06946H44.5014L44.4754 1.0734C43.8348 1.16725 43.0313 1.2703 42.1033 1.38384C39.5206 1.70545 35.9837 2.14651 32.5143 2.88555C24.1203 4.67472 17.4264 8.55302 12.6174 14.4128C2.25318 27.0394 5.36348 42.9261 13.0446 53.0711C14.9626 55.5402 17.6241 57.3266 20.6358 58.1663Z" fill="black"/>
<path d="M54.9736 36.1948C54.6304 36.7796 54.2768 37.3841 53.9795 38.0109C53.5985 38.6657 53.4591 39.4334 53.5853 40.1804C53.7116 40.9274 54.0954 41.6066 54.6705 42.0999C54.9664 42.388 55.3163 42.6149 55.7001 42.7676C56.084 42.9202 56.494 42.9957 56.9071 42.9896C57.32 42.9835 57.7278 42.8959 58.1069 42.7321C58.486 42.5681 58.8291 42.331 59.1164 42.0342C60.5589 40.7483 61.7564 39.2115 62.6504 37.4983C65.0224 32.3132 63.2297 25.9691 58.1871 21.7061C53.7458 17.764 47.9546 15.6879 42.0202 15.9107C36.9743 15.6298 32.0006 17.2345 27.2238 20.6836C20.2115 25.7485 18.7811 34.8913 20.9963 40.9224C22.0871 43.8897 23.9501 45.5135 26.5373 45.7491C26.6181 45.7563 26.7019 45.7603 26.7879 45.7603C27.7462 45.7603 28.9886 45.3146 29.4034 44.6255C29.725 44.0925 29.5295 43.1966 28.7688 41.7185C28.5041 41.2458 28.1931 40.8003 27.8407 40.3888C27.4085 39.9202 27.067 39.3753 26.8337 38.7821C25.3898 33.9961 27.5737 28.0759 31.706 25.5851C34.1367 24.0627 36.8172 22.9815 39.6241 22.3914C44.8419 21.4285 49.7971 22.9164 53.9603 26.6956C56.8632 29.3321 57.2874 32.1741 55.2947 35.6389L54.9736 36.1948Z" fill="black"/>
</g>
<defs>
<clipPath id="clip0">
<rect width="111.577" height="165.397" fill="white" transform="translate(0.848633 0.915039)"/>
</clipPath>
</defs>
</svg>

<svg xmlns="http://www.w3.org/2000/svg" width="113" height="167" fill="none" viewBox="0 0 113 167"><g fill="#000" clip-path="url(#a)"><path d="M109.376 88.461a10.9 10.9 0 0 0-2.797-3.867 10.9 10.9 0 0 0-4.181-2.302 12.05 12.05 0 0 0-10.035 1.536c-.349.227-.69.466-1.046.716l-.172.12a14.18 14.18 0 0 0-9.875-7.942 11.64 11.64 0 0 0-10.338 3.105c-1.522-2.35-3.573-4.753-7.097-5.46-3.347-.67-5.987.939-8.543 2.494l-.152.091q-.13-1.965-.25-3.865c-.202-3.216-.394-6.25-.698-9.312a722 722 0 0 1-.328-3.404c-.511-5.363-1.04-10.91-2.017-16.29-.525-2.903-1.825-6.056-3.967-9.639-1.247-2.087-2.872-3.336-4.827-3.713-1.858-.358-3.962.128-6.09 1.402a9.53 9.53 0 0 0-4.417 6.006 25 25 0 0 0-.862 5.027 932 932 0 0 1-.19 3.832c-.281 5.574-.572 11.338-.567 17.01.006 7.436.17 14.727.346 22.447q.1 4.53.196 9.134l-.15-.132c-.448-.39-.834-.727-1.257-1.032-6.712-4.849-13.849-6.54-21.211-5.028a9.61 9.61 0 0 0-7.136 5.755 9.96 9.96 0 0 0 1.113 9.439 18.3 18.3 0 0 0 2.713 2.978c.568.539 1.156 1.096 1.68 1.677.945 1.05 1.94 2.09 2.902 3.098a59.3 59.3 0 0 1 6.756 7.964 105 105 0 0 1 5.787 10.426c.966 1.908 1.966 3.882 3.012 5.787l.177.324c2.494 4.532 5.065 9.219 7.89 13.652a22.6 22.6 0 0 0 5.119 5.406 49.5 49.5 0 0 0 13.295 7.325 41.4 41.4 0 0 0 14.94 2.773A49 49 0 0 0 84.3 162.71c3.746-1.4 7.185-3.839 10.67-6.427 6.002-4.459 10.087-11.027 12.855-20.679a110.7 110.7 0 0 0 4.25-36.016 32.4 32.4 0 0 0-2.7-11.127M43.142 149.55a11.9 11.9 0 0 1-3.03-2.935 106 106 0 0 1-5.652-9.104 352 352 0 0 1-7.745-15.276c-4.139-8.646-9.326-15.31-15.857-20.375a2 2 0 0 1-.222-.188 33 33 0 0 0-.626-.616c-1.39-1.349-2.703-2.622-1.883-4.718.784-2.003 2.766-2.347 4.696-2.347q.204-.001.407.004c6.454.142 11.434 2.413 14.803 6.749a16.5 16.5 0 0 1 2.199 4.702q.162.47.328.931c.494 1.373 1.16 3.249 3.455 3.191 1.777-.049 2.954-1.193 3.413-3.31.184-.9.265-1.82.24-2.739-.13-7.404-.3-16.19-.515-25.224-.038-1.64-.118-3.303-.197-4.913-.13-2.796-.27-5.686-.197-8.518.212-8.411.69-16.798 1.081-23.164.227-3.697.854-4.616 4.152-5.874 2.047 1.451 3.331 3.749 3.925 7.015.86 4.61 1.46 9.265 1.799 13.943.476 6.991.83 14.111 1.172 20.993q.23 4.61.47 9.22c.083 1.558.464 3.407 2.686 3.88 2.07.438 3.179-1.275 3.99-3.011q.245-.525.487-1.054a29.4 29.4 0 0 1 3.094-5.629c1.036-1.357 2.353-2.013 3.602-1.806 1.305.218 2.383 1.331 2.954 3.054a17.3 17.3 0 0 1 .632 4.238q.041.655.095 1.304.046.82-.047 1.634c-.029.338-.057.677-.065 1.014-.047 1.695.74 2.738 2.276 3.015 1.707.307 2.904-.487 3.375-2.238.065-.247.121-.5.174-.75q.11-.594.31-1.165c.196-.514.377-1.034.563-1.554a28 28 0 0 1 1.79-4.285c1.233-2.212 2.722-2.757 5.316-1.936 2.784.88 4.487 2.669 5.063 5.316.308 1.654.477 3.33.507 5.01l.013.268c.12 2.636.575 4.242 2.537 4.649 2.194.455 3.09-1.044 3.88-2.363q.127-.215.258-.427.296-.485.59-.978a22.5 22.5 0 0 1 2.153-3.175c1.378-1.592 2.94-2.368 4.398-2.186 1.438.179 2.736 1.286 3.654 3.118a25.6 25.6 0 0 1 2.734 11.201c.122 8.729-.972 17.803-3.443 28.566a41.2 41.2 0 0 1-6.75 14.788c-3.491 4.878-8.778 8.455-15.71 10.633-13.045 4.093-25.255 1.942-37.332-6.578"/><path d="M20.636 58.166c2.976.932 4.785.591 5.53-1.05.777-1.706-.228-3.42-2.984-5.102l-.636-.385c-1.497-.9-3.044-1.828-4.049-3.104a24.75 24.75 0 0 1-5.402-14.702c-.377-10.342 5.677-19.138 15.8-22.953a50.15 50.15 0 0 1 20-3.246c7.581.337 13.118 2.354 17.427 6.348 2.831 2.625 11.617 12.125 5.855 24.219a31.5 31.5 0 0 1-4.696 7.199 45.5 45.5 0 0 1-4.94 4.575c-.757.633-1.51 1.266-2.247 1.917q-.509.448-1.033.881-1.19.95-2.237 2.057c-1.182 1.313-1.34 2.815-.428 4.124a3.46 3.46 0 0 0 2.837 1.584c.377-.001.75-.065 1.106-.19a22 22 0 0 0 4.892-2.355 37.9 37.9 0 0 0 10.895-11.04c8.179-12.471 6.472-26.641-4.452-36.982-6.481-6.134-14.404-8.71-27.346-8.892h-.027l-.026.004c-.64.094-1.444.197-2.372.31-2.582.322-6.12.764-9.589 1.503-8.394 1.789-15.088 5.667-19.897 11.527-10.364 12.626-7.254 28.513.428 38.658a14.57 14.57 0 0 0 7.59 5.095"/><path d="M54.974 36.195c-.344.585-.697 1.19-.994 1.816a3.24 3.24 0 0 0 .69 4.089 3.14 3.14 0 0 0 4.446-.066 16 16 0 0 0 3.534-4.536c2.372-5.185.58-11.529-4.463-15.792a23.05 23.05 0 0 0-16.167-5.795c-5.046-.281-10.02 1.324-14.796 4.773-7.012 5.064-8.443 14.207-6.228 20.238 1.091 2.968 2.954 4.592 5.541 4.827q.122.01.25.011c.96 0 2.202-.445 2.616-1.134.322-.533.127-1.43-.634-2.907a8.2 8.2 0 0 0-.928-1.33 5.2 5.2 0 0 1-1.007-1.607c-1.444-4.786.74-10.706 4.872-13.197a24.4 24.4 0 0 1 7.918-3.194c5.218-.962 10.173.525 14.336 4.305 2.903 2.636 3.327 5.478 1.335 8.943z"/></g><defs><clipPath id="a"><path fill="#fff" d="M.849.915h111.577v165.397H.849z"/></clipPath></defs></svg>
